public/library/taikoscan-icon-dark.svg

<svg width="256" height="256" viewBox="0 0 256 256" fill="none" xmlns="http://www.w3.org/2000/svg">
<mask id="mask0_14640_6279" style="mask-type:alpha" maskUnits="userSpaceOnUse" x="0" y="0" width="256" height="256">
<rect width="256" height="256" fill="#D9D9D9"/>
</mask>
<g mask="url(#mask0_14640_6279)">
</g>
<path d="M248.155 196.475L204.719 137.396C200 130.977 193.013 127.131 185.572 126.283C183.878 126.086 182.366 125.102 181.519 123.618C180.657 122.134 180.566 120.332 181.247 118.758C184.226 111.884 184.407 103.905 181.201 96.607L151.816 29.4125C147.46 19.4348 137.614 13 126.74 13C115.866 13 106.021 19.45 101.665 29.4125L72.2793 96.607C69.0882 103.905 69.2546 111.884 72.234 118.758C72.9147 120.332 72.8087 122.134 71.9616 123.618C71.0997 125.102 69.6025 126.086 67.9086 126.283C60.4675 127.131 53.4804 130.977 48.7618 137.396L5.32615 196.475C-1.11661 205.242 -1.76694 216.991 3.66251 226.424C9.1071 235.841 19.603 241.155 30.4015 239.959L103.223 231.844C111.133 230.966 117.953 226.832 122.4 220.806C123.413 219.429 125.031 218.611 126.74 218.611C128.449 218.611 130.052 219.429 131.081 220.806C135.527 226.832 142.348 230.966 150.258 231.844L223.079 239.959C233.878 241.171 244.374 235.856 249.818 226.424C255.247 216.991 254.597 205.242 248.155 196.475ZM91.2748 105.04L120.706 37.7702C121.764 35.3628 124.139 33.8033 126.755 33.8033C129.372 33.8033 131.746 35.3628 132.805 37.7702L162.236 105.04C163.159 107.16 162.962 109.613 161.692 111.551C160.421 113.489 158.274 114.655 155.944 114.655H97.5514C95.2373 114.655 93.0747 113.489 91.8042 111.551C90.5338 109.613 90.3372 107.16 91.2597 105.04H91.2748ZM106.383 207.452C105.34 209.526 103.313 210.92 101.015 211.177L28.1177 219.292C25.5164 219.58 22.9756 218.308 21.6599 216.037C20.3441 213.766 20.5104 210.935 22.0682 208.815L65.5491 149.675C66.9256 147.813 69.1335 146.753 71.4476 146.889C73.7615 147.01 75.8485 148.297 77.013 150.311L77.0586 150.387L106.172 200.866L106.217 200.942C107.382 202.955 107.442 205.408 106.399 207.467L106.383 207.452ZM132.729 184.62C131.489 186.755 129.221 188.087 126.74 188.087C124.275 188.087 121.992 186.77 120.751 184.635L98.3831 145.86C97.1428 143.725 97.1428 141.075 98.3831 138.94C99.6234 136.806 101.892 135.473 104.372 135.473H149.093C151.559 135.473 153.842 136.775 155.083 138.925C156.322 141.075 156.322 143.71 155.083 145.845L132.729 184.62ZM231.836 216.037C230.52 218.308 227.994 219.595 225.378 219.307L152.481 211.192C150.182 210.935 148.156 209.542 147.112 207.467C146.069 205.393 146.129 202.94 147.294 200.942L147.339 200.866L176.452 150.387L176.498 150.311C177.662 148.297 179.749 147.01 182.063 146.889C184.377 146.768 186.585 147.813 187.961 149.675L231.443 208.815C233 210.935 233.152 213.766 231.851 216.037H231.836Z" fill="#E81899"/>
</svg>

<svg xmlns="http://www.w3.org/2000/svg" width="256" height="256" fill="none" viewBox="0 0 256 256"><mask id="a" width="256" height="256" x="0" y="0" maskUnits="userSpaceOnUse" style="mask-type:alpha"><path fill="#d9d9d9" d="M0 0h256v256H0z"/></mask><path fill="#e81899" d="m248.155 196.475-43.436-59.079a27.57 27.57 0 0 0-19.147-11.113 5.38 5.38 0 0 1-4.053-2.665 5.4 5.4 0 0 1-.272-4.86c2.979-6.874 3.16-14.853-.046-22.151l-29.385-67.194A27.36 27.36 0 0 0 126.74 13a27.38 27.38 0 0 0-25.075 16.413L72.279 96.607a27.66 27.66 0 0 0-.045 22.151 5.45 5.45 0 0 1-.272 4.86 5.4 5.4 0 0 1-4.053 2.665 27.57 27.57 0 0 0-19.147 11.113L5.326 196.475a27.45 27.45 0 0 0-1.663 29.949c5.444 9.417 15.94 14.731 26.739 13.535l72.821-8.115a27.52 27.52 0 0 0 19.177-11.038 5.4 5.4 0 0 1 4.34-2.195c1.709 0 3.312.818 4.341 2.195a27.52 27.52 0 0 0 19.177 11.038l72.821 8.115c10.799 1.212 21.295-4.103 26.739-13.535a27.45 27.45 0 0 0-1.663-29.949M91.275 105.04l29.431-67.27a6.62 6.62 0 0 1 6.049-3.967 6.62 6.62 0 0 1 6.05 3.967l29.431 67.27a6.88 6.88 0 0 1-.544 6.511 6.86 6.86 0 0 1-5.748 3.104H97.551a6.87 6.87 0 0 1-5.747-3.104 6.88 6.88 0 0 1-.544-6.511zm15.108 102.412a6.86 6.86 0 0 1-5.368 3.725l-72.897 8.115a6.62 6.62 0 0 1-6.458-3.255 6.6 6.6 0 0 1 .408-7.222l43.481-59.14c1.377-1.862 3.584-2.922 5.899-2.786a6.84 6.84 0 0 1 5.565 3.422l.046.076 29.113 50.479.045.076a6.85 6.85 0 0 1 .182 6.525zm26.346-22.832a6.93 6.93 0 0 1-5.989 3.467 6.93 6.93 0 0 1-5.989-3.452L98.383 145.86a6.9 6.9 0 0 1 0-6.92 6.93 6.93 0 0 1 5.989-3.467h44.721a6.9 6.9 0 0 1 5.99 3.452 6.9 6.9 0 0 1 0 6.92zm99.107 31.417a6.62 6.62 0 0 1-6.458 3.27l-72.897-8.115a6.86 6.86 0 0 1-5.369-3.725 6.84 6.84 0 0 1 .182-6.525l.045-.076 29.113-50.479.046-.076a6.84 6.84 0 0 1 5.565-3.422 6.88 6.88 0 0 1 5.898 2.786l43.482 59.14a6.63 6.63 0 0 1 .408 7.222z"/></svg>
